!!!COM: Music21
!!!OTL: polka_Mike-Coens
!!!OMV: polka_Mike-Coens
**kern
*clefG2
*k[f#c#]
*M2/4
=1
16gLL
16e
16b
16eJJ
=
16gLL
16e
16b
32aL
32gJJJ
4ryy
=
16f#LL
16d
16a
16dJJ
4ryy
=
32f#LLL
32d
32f#
32gJ
16a
32bL
32aJJJ
4ryy
=
16gLL
16e
16b
16eJJ
4ryy
=
16gLL
16bJ
8ddJ
4ryy
=
16eeLL
16dd
16b
16aJJ
4ryy
!!linebreak:original
=
16gLL
16e
16.e
32f#JJk
4ryy
=||
*M2/4
16gLL
16e
16b
16eJJ
=
16gLL
16e
16b
32aL
32gJJJ
4ryy
=
16f#LL
16d
16a
16dJJ
4ryy
=
32f#LLL
32d
32f#
32gJ
16a
32bL
32aJJJ
4ryy
=
16gLL
16e
16b
16eJJ
4ryy
=
16gLL
16bJ
8ddJ
4ryy
!!linebreak:original
=
16eeLL
16dd
16b
16aJJ
4ryy
=
16gLL
16e
16e
16dJJ
4ryy
=||
8gL
16bL
16aJJ
4ryy
=
8gL
16bL
16aJJ
4ryy
=
8f#L
16aL
16f#JJ
4ryy
=
16eLL
16d
16d
32eL
32f#JJJ
4ryy
=
16gLL
16b
16b
32aL
32bJJJ
4ryy
=
32gLLL
32a
32b
32cc#JJ
8ddJ
4ryy
!!linebreak:original
=
16eeLL
16dd
16b
16aJJ
4ryy
=
16gLL
16e
16e
16dJJ
4ryy
=||
8gL
16bL
16aJJ
4ryy
=
8gL
16bL
16aJJ
4ryy
=
8f#L
16aL
16f#JJ
4ryy
=
16eLL
16d
16d
32eL
32f#JJJ
4ryy
=
16gLL
16b
16b
32aL
32bJJJ
4ryy
=
32gLLL
32a
32b
32cc#JJ
8ddJ
4ryy
!!linebreak:original
=
16eeLL
16dd
16b
16aJJ
4ryy
=
16gLL
16e
16.e
32f#JJk
4ryy
=||
*-
